X: 1107
T: Amhran Na Tra Baine
R: jig
M: 6/8
K: Cmajor
G2|c3ded c4G2|A3GED G4CD|E4DE C4D2|C6 C4G2|
G4E2 G4 (3ABc|d4c2 e4ed|c4G2 A3GED|G6G4G2|
G4E2 G4 (3ABc|d4c2 e4ed|c4G2 A3GED|G6G4G2|
c3ded c4G2|A3GED G4CD|E4DE C4D2|C6C4||

